X: 19822
T: Jerry Holland's
R: strathspey
M: 4/4
K: Gminor
K: Bb Major
|:Bc|Bbgb fdBe|BFDB GECD|Bbgb fdBe|BFfc dB:|
|:BA|BB,DF cCEG|DFBf bgec|1 BB,DF cCEG|DBAf dB:|2 DBEB B,Fcf|bgfc dB||

